X:1
T:Title
%%score { 1 | 2 }
L:1/8
M:3/4
K:Ab
V:1 treble nm="Grand Piano"
V:2 bass 
V:1
 z2 z2[Q:1/4=112] E2 | A2 E2 C>D | E2 A2 B2 | c3 B [EA]>B | c4 c2 | d>c B2 d2 | [Ec]2 [EA]2 [Ec]2 | %7
 [=DB]>[DF] [DG]2 [DA]2 | B4 E2 | A2 E2 C>D | E2 A2 B2 | c3 B [EA]>B | c4 d2 | e3 d c>d | %14
[M:2/4] e2 [_Ge]2 |[M:1/4] [Fd]2 |[M:3/4] c3 c B>B |[M:2/4] [CA]4 |[M:1/4] [EA]2 | %19
[M:3/4] [GB]2 [Ge]2 [GB]>G | A2 e2 A2 | B2 [Ge]2 [A=d]>[Ad] | [Ge]4 [Ge]2 | e3 d c>d | %24
 e2 [_Ge]2 [Fd]2 | c3 c B>B |[M:2/4] [CA]4 |] %27
V:2
 z2 z2 E,2 | A,2 E,2 C,>D, | E,2 A,2 [E,G,E]2 | [A,E]3 [E,G,E] [C,A,]>[E,G,E] | [A,E]4 [A,E]2 | %5
 [E,B,E]>[E,A,E] [E,G,E]2 [E,B,E]2 | [A,,A,]2 [C,A,]2 [A,,A,]2 | %7
 [B,,A,]>[B,,B,] [B,,B,]2 [B,,F,]2 | [E,G,D]4 E,2 | A,2 E,2 C,>D, | E,2 A,2 [E,G,E]2 | %11
 [A,E]3 [E,G,E] [C,A,]>[E,G,E] | [A,E]4 [A,B,E]2 | [A,CA]3 [A,B,E] [A,E]>[A,B,E] | %14
[M:2/4] [A,CA]2[K:bass] [C,A,]2 |[M:1/4] [D,A,]2 |[M:3/4] [E,A,E]3 [E,A,E] [E,G,D]>[E,G,D] | %17
[M:2/4] [A,,A,]4 |[M:1/4] [A,C]2 |[M:3/4] [E,D]2 [E,B,]2 [E,D]>[E,DE] | [A,CE]2 [A,CE]2 [A,CE]2 | %21
 [G,B,E]2 [E,B,]2 [B,,B,]>[B,,B,] | [E,B,]4 [E,D]2 | [A,CA]3 [A,B,E] [A,E]>[A,B,E] | %24
 [A,CA]2[K:bass] [C,A,]2 [D,A,]2 | [E,A,E]3 [E,A,E] [E,G,D]>[E,G,D] |[M:2/4] [A,,A,]4 |] %27

